svgs/regular/signs-post.svg

<svg xmlns="http://www.w3.org/2000/svg" viewBox="0 0 512 512"><!--! Font Awesome Pro 6.1.1 by @fontawesome - https://fontawesome.com License - https://fontawesome.com/license (Commercial License) Copyright 2022 Fonticons, Inc. --><path d="M232 24C232 10.75 242.7 0 256 0C269.3 0 280 10.75 280 24V32H440.3C445.2 32 449.8 34.21 452.8 38L504 102C508.7 107.8 508.7 116.2 504 121.1L452.8 185.1C449.8 189.8 445.2 192 440.3 192H280V224H448C465.7 224 480 238.3 480 256V352C480 369.7 465.7 384 448 384H280V488C280 501.3 269.3 512 256 512C242.7 512 232 501.3 232 488V384H71.69C66.83 384 62.23 381.8 59.2 377.1L7.996 313.1C3.322 308.2 3.322 299.8 7.996 294L59.2 230C62.23 226.2 66.83 224 71.69 224H232V192H64C46.33 192 32 177.7 32 160V64C32 46.33 46.33 32 64 32H232V24zM80 80V144H424.9L450.5 112L424.9 80H80zM432 272H87.07L61.47 304L87.07 336H432V272z"/></svg>

<svg xmlns="http://www.w3.org/2000/svg" viewBox="0 0 512 512"><!--! Font Awesome Pro 6.4.2 by @fontawesome - https://fontawesome.com License - https://fontawesome.com/license (Commercial License) Copyright 2023 Fonticons, Inc. --><path d="M232 24c0-13.3 10.7-24 24-24s24 10.7 24 24v8H440.3c4.9 0 9.5 2.2 12.5 6L504 102c4.7 5.8 4.7 14.1 0 20l-51.2 64c-3 3.8-7.6 6-12.5 6H280v32H448c17.7 0 32 14.3 32 32v96c0 17.7-14.3 32-32 32H280V488c0 13.3-10.7 24-24 24s-24-10.7-24-24V384H71.7c-4.9 0-9.5-2.2-12.5-6L8 314c-4.7-5.8-4.7-14.1 0-20l51.2-64c3-3.8 7.6-6 12.5-6H232V192H64c-17.7 0-32-14.3-32-32V64c0-17.7 14.3-32 32-32H232V24zM80 80v64H424.9l25.6-32L424.9 80H80zM432 336V272H87.1L61.5 304l25.6 32H432z"/></svg>
